X:1
T:Title
%%score 1 { 2 | 3 }
L:1/8
Q:1/4=90
M:4/4
K:B
V:1 treble nm="Grand Piano, Soprano"
V:2 treble nm="Grand Piano, Bass"
V:3 bass 
V:1
 z4 z2 [FB][FB] | [FB][FB][FA][Fc] [DB]2 [FB][FB] | [GB][GB][EG][EB] [DF]2 [EG][EG] | %3
w: 1.~I~ am~|ful ly~ saved~ to day,~ All~ my~|guilt~ is~ washed~ a way,~ And~ the~|
 [DF][DF][FB][FB] [FA][FA][EG][EA] | [DB]6 [DF][DF] | [FB][FB][FB][FB] [FB]2 [FB][FB] | %6
w: love~ of~ God~ is~ flood ing~ all~ my~|soul;~ For~ His~|grace~ a bides~ with in,~ Since~ I've~|
 [FA][FB][Fc][FA] [FB]2 [DF][DF] | [EG][EG][EG][EG] [DF][FB][FA][Fc] | [FB]6 [B,D][CE] | %9
w: been~ re deemed~ from~ sin,~ And~ the~|pre cious~ blood~ of~ Je sus~ makes~ me~|whole.~ * *|
 [DF]4- [DF][DF][EG][EA] | [DB]6 [DB][DB] | [GB]4- [GB][GB][FA][EG] | [DF]6 [B,D][CE] | %13
w: ||||
 [DF]4- [DF][DF][FB][Fc] | [Fd]6 [Fd][Fd] | [Fd][Fd][Fc][Fe] [Fd]2 [Ec]2 | [DB]6 z2 |] %17
w: ||||
V:2
 z4 z2 DD | DDC[K:bass]A, B,2 DD | B,B,B,B, B,2 B,B, | B,B,[K:treble]DD CCCC | B,6 B,B, | %5
 DD[K:treble]DD D2 DD | CDEC D2[K:bass] B,B, | B,B,B,B,[K:treble] B,DCE | D6 z2 | %9
 B,B,B,B, .B,2 z2 | F,F,F,F, F,2 B,B, | B,B,B,B, .B,2 z2 | B,B,B,B, B,2 B,B, | B,B,B,B, B,2 B,A, | %14
 B,B,B,B, B,2 B,B, | B,B,A,C B,2 A,2 | B,6 z2 |] %17
V:3
 z4 z2 B,,B,, | B,,B,,F,F, B,,2 B,,B,, | E,E,E,G, z2 E,E, | F,F,F,F, F,F,F,F, | B,,6 B,,B,, | %5
 B,,B,,B,,B,, B,,2 B,,B,, | F,F,F,F, B,,2 B,,B,, | E,E,E,E, F,F,F,F, | B,,6 z2 | %9
 B,,B,,B,,B,, .B,,2 z2 | B,,B,,B,,B,, B,,2 B,,B,, | E,E,E,E, .E,2 z2 | B,,B,,B,,B,, B,,2 B,,B,, | %13
 B,,B,,B,,B,, B,,2 D,F, | z8 | F,F,F,F, F,2 F,2 | B,,6 z2 |] %17

